outputs/icons/social/phrase_round.svg

<svg xmlns="http://www.w3.org/2000/svg" width="1200" height="1200" fill="none"><path fill="#000" d="M311.644 300C195.236 300 100 395.236 100 511.645c0 97.36 67.733 179.905 158.732 203.185-2.11 4.235-21.17 63.495-99.472 131.215-40.216 33.865-10.585 97.36 40.216 86.775 156.62-33.865 338.639-135.45 328.049-427.52 0-116.391-99.474-205.3-215.881-205.3M889.425 300c-116.405 0-211.64 95.236-211.64 211.645 0 97.36 67.73 179.905 158.73 203.185-2.11 4.235-21.17 63.495-99.47 131.215-40.22 33.865-10.585 97.36 40.215 86.775 156.62-33.865 338.635-135.45 328.05-427.52 0-116.391-99.475-205.3-215.885-205.3"/></svg>

<svg width="1200" height="1200" viewBox="0 0 1200 1200" fill="none" xmlns="http://www.w3.org/2000/svg"><path d="M311.644 300C195.236 300 100 395.236 100 511.645C100 609.005 167.733 691.55 258.732 714.83C256.622 719.065 237.562 778.325 159.26 846.045C119.044 879.91 148.675 943.405 199.476 932.82C356.096 898.955 538.115 797.37 527.525 505.3C527.525 388.909 428.051 300 311.644 300Z" fill="black"/><path d="M889.425 300C773.02 300 677.785 395.236 677.785 511.645C677.785 609.005 745.515 691.55 836.515 714.83C834.405 719.065 815.345 778.325 737.045 846.045C696.825 879.91 726.46 943.405 777.26 932.82C933.88 898.955 1115.895 797.37 1105.31 505.3C1105.31 388.909 1005.835 300 889.425 300Z" fill="black"/></svg>
